FINK
CUT[BEMOOSTER BURSCHE ZIEH ICH AUS]
REG[Europa, Mitteleuropa, Deutschland]
KEY[F0529  16  G 6/8]
MEL[54  3__3_3_.45_  1__1_1__
    1_  4__4_6_.543  2_.32_2__
    5_  5_3_4_5__+1_  5_3_4_5__
    1_  6_.54_5_.23_  4_.32_3__
    5_  5_3_4_5__+1_  5_3_4_5__
    1_  6_.54_5_.43_  4__.2__.  1__0__. //] >>
FCT[Studenten - Lied, Abschied]
